X: 8
T: The Morning Dew
R: reel
M: 4/4
L: 1/8
K: Edor
B2 EB GBEB | B2 GB ADFA | B2 GB FBEB | BcdB ADFA |BAGF EFGA | B2 GB ADFA |B2 EB GBEB | dcdB ADFA|


Tune 69	Setting 12526

